Newaita-dark/.DP/24/nm-vpn-standalone-lock.svg

<?xml version="1.0" encoding="UTF-8"?>
<svg xmlns="http://www.w3.org/2000/svg" xmlns:xlink="http://www.w3.org/1999/xlink" width="24pt" height="24pt" viewBox="0 0 24 24" version="1.1">
<g id="surface1">
<path style=" stroke:none;fill-rule:nonzero;fill:rgb(74.117649%,74.117649%,74.117649%);fill-opacity:1;" d="M 9.425781 1.179688 C 7.503906 1.179688 5.953125 2.507812 5.953125 4.15625 L 5.953125 12.09375 L 3.96875 12.09375 C 3.417969 12.09375 2.976562 12.539062 2.976562 13.085938 L 2.976562 22.019531 C 2.976562 22.566406 3.417969 23.011719 3.96875 23.011719 L 19.84375 23.011719 C 20.394531 23.011719 20.839844 22.566406 20.839844 22.019531 L 20.839844 13.085938 C 20.839844 12.539062 20.394531 12.09375 19.84375 12.09375 L 17.859375 12.09375 L 17.859375 4.15625 C 17.859375 2.507812 16.3125 1.179688 14.386719 1.179688 Z M 9.921875 4.15625 L 13.890625 4.15625 C 14.441406 4.15625 14.882812 4.597656 14.882812 5.148438 L 14.882812 12.09375 L 8.929688 12.09375 L 8.929688 5.148438 C 8.929688 4.597656 9.375 4.15625 9.921875 4.15625 Z M 9.921875 4.15625 "/>
</g>
</svg>

<svg xmlns="http://www.w3.org/2000/svg" width="32" height="32" viewBox="0 0 24 24"><path d="M9.426 1.18c-1.922 0-3.473 1.328-3.473 2.976v7.938H3.97a.991.991 0 0 0-.992.992v8.934c0 .546.441.992.992.992h15.875c.55 0 .996-.446.996-.992v-8.934a.994.994 0 0 0-.996-.992h-1.985V4.156c0-1.648-1.547-2.976-3.472-2.976zm.496 2.976h3.969c.55 0 .992.442.992.992v6.946H8.93V5.148c0-.55.445-.992.992-.992zm0 0" fill="#bdbdbd"/></svg>
